!!!!SEGMENT: pl-sa--18-a-i-18--003_barcicki-j--polonaisso-no-3.krn
!!!id: 18xx:334
!!!COM: Barcicki, J.
!!!OTL: Polonaisso – No. 3
!!!PDT:
!!!SMS-siglum: PL-SA
!!!SMS-shelfmark: 18/A I 18
!!!NIFC-rismID: 1001065329
!!!URL-scan: http://bc.bdsandomierz.pl/dlibra/publication/1284/edition/1252/content
!!!ONB-nifc:
!!!SMS-variant:
!!!SMS-altvar:
**kern	**kern	**dynam
*part1	*part1	*part1
*staff2	*staff1	*
*I"Pianoforte	*	*
*I'P-no	*	*
*clefF4	*clefG2	*
*k[f#c#g#]	*k[f#c#g#]	*
*M3/4	*M3/4	*
=1	=1	=1
!	!LO:TX:a:t=No&colon; 3io	!
*	*	*^
!	!	!LO:DY:rj	!LO:DY:rj
!	!	!LO:DY:b=2	!LO:DY:a
*2\right	*	*	*
*tremolo	*	*	*
!LO:TX:a:t=P:problem:mixed beam	!	!	!
8AA/L	4.aa\	p	f
8A\	.	.	.
8AA/	.	.	.
8A\	16aa\LL	.	.
.	16gg#\JJ	.	.
8AA/	16bb\LL	.	.
.	16aa\	.	.
8A\J	16gg#\	.	.
.	16ff#\JJ	.	.
*Xtremolo	*	*	*
*	*	*v	*v
=2	=2	=2
!LO:TX:a:t=P:problem:mixed beam	!	!
8AA/L	8ff#L 8dd\	.
8A\J	8eeJ 8cc#\	.
*	*^	*
*	*	*2\right	*
8r	2ee	2cc#\	.
8A\L	.	.	.
8c#\	.	.	.
8e\J	.	.	.
*	*v	*v	*
=3	=3	=3
!LO:TX:a:t=P:problem:mixed beam	!	!
*tremolo	*	*
8AA/L	8ff# 8dd\	.
8A\	4ff# 4dd\	.
8AA/	.	.
8A\	8ee 8cc#\	.
8AA/	16ggn\LL	.
.	16ff#\	.
8A\J	16ee\	.
.	16dd\JJ	.
*Xtremolo	*	*
=4	=4	=4
*	*^	*
.	.	16qqcc#/LL	.
!LO:TX:a:t=P:problem:mixed beam	!	!	!
.	.	16qqee/JJ	.
8AA/L	8ryy	8dd\L	.
8A\J	8ryy	8cc#\J	.
8r	2cc#/	2a\	.
8e\L	.	.	.
8c#\	.	.	.
8A\J	.	.	.
*	*v	*v	*
=5	=5	=5
!	!	!LO:DY:rj
!	!	!LO:DY:t=f&colon;
16E\LL	8bL 8g#X/	f
16B\	.	.
16G#\	8bJ 8g#/	.
16B\JJ	.	.
*rep	*	*
16E\LL	(4.ee\	.
16B\	.	.
16G#\	.	.
16B\JJ	.	.
*Xrep	*	*
*rep	*	*
16E\LL	.	.
16B\	.	.
16G#\	8dd\)	.
16B\JJ	.	.
*Xrep	*	*
!!LO:LB:g=original
=6	=6	=6
8r	8cc#\	.
8c# 8A 8E\	4ee\	.
*tremolo	*tremolo	*
8c#L 8A 8E\	.	.
8c# 8A 8E\	16aa\LL	.
.	16ee\JJ	.
8c# 8A 8E\	16dd\LL	.
.	16cc#\	.
8c#J 8A 8E\	16b\	.
*Xtremolo	*Xtremolo	*
.	16a\JJ	.
=7	=7	=7
16E\LL	8bL 8e/	.
16B\	.	.
16G#\	8bJ 8e/	.
16B\JJ	.	.
*rep	*	*
16E\LL	(4.ee\	.
16B\	.	.
16G#\	.	.
16B\JJ	.	.
*Xrep	*	*
*rep	*	*
16E\LL	.	.
16B\	.	.
16G#\	8dd\)	.
16B\JJ	.	.
*Xrep	*	*
=8	=8	=8
8A\L	16cc#\LL	.
.	16a\	.
8F#\	16dd\	.
.	16b\JJ	.
.	8qqb/	.
8E\	2a/	.
8G#\J	.	.
4A\	.	.
=9||	=9||	=9||
16F#\LL	8cc#\L	.
16c#\	.	.
.	8qqdd/	.
16A\	8cc#t\J	.
16c#\JJ	.	.
*rep	*	*
16F#\LL	4.ff#\	.
16c#\	.	.
16A\	.	.
16c#\JJ	.	.
*Xrep	*	*
*rep	*	*
16F#\LL	.	.
16c#\	.	.
16A\	8cc#\	.
16c#\JJ	.	.
*Xrep	*	*
=10	=10	=10
!	!LO:TUP:a	!
4F#\	12aa'\L	.
.	12gg#'\	.
.	12ff#'\J	.
4A\	16ccc#\LL	.
.	16bb\	.
.	16aa\JJ	.
.	(16gg#\LL	.
4F#\	16ff#\J)	.
!	!LO:SIC:o=8.ff#`\	!
!	!LO:N:vis=8	!
.	8.ff#`\J	.
!!LO:LB:g=original
=11	=11	=11
!LO:TX:a:t=P:problem:mixed beam	!	!
8BB/L	16ee\LL	.
.	16dd#X\JJ	.
8B\J	4dd#\	.
4BB/	.	.
.	16b\LL	.
.	16cc#\JJ	.
4r	16dd#X\LL	.
.	16ee\	.
.	16ff#\	.
.	16gg#\JJ	.
=12	=12	=12
4BB/	8.aa\L	.
.	16bb\Jk	.
.	8qqddd/	.
4D#X/	8ccc#\L	.
.	16bb\L	.
.	16aa\JJ	.
.	8qqaa/	.
4E/	4gg#\	.
=13	=13	=13
!	!LO:TX:b:t=dol&colon;	!
8r	4.bb 4.gg#\	.
8e\L	.	.
8E\	.	.
8e\J	16gg#LL 16ee\	.
.	16bbJJ 16gg#\	.
4d#X\	8aaL 8ff#\	.
.	8ff#J 8b\	.
=14	=14	=14
8r	8gg# 8ee\	.
8E\L	4bb 4gg#\	.
8G#\	.	.
8E\J	16gg#LL 16ee\	.
.	16bbJJ 16gg#\	.
4D#X/	8aaL 8ff#\	.
.	8ff#J 8b\	.
=15	=15	=15
4E\	16gg#LL 16ee\	.
.	16gg# 16ee\	.
.	16aa 16ff#\	.
.	16bbJJ 16gg#\	.
4A\	8.ccc#\L	.
.	16aa\Jk	.
4A 4AA/	8.eee\L	.
.	16ccc#\Jk	.
!!LO:LB:g=original
=16	=16	=16
4B\	16bb\LL	.
.	16gg#\	.
.	16aa\	.
.	16ff#\JJ	.
.	8qqff#/	.
8r	2ee\	.
8BB/	.	.
4E\	.	.
!!LO:PB:g=original
=17||	=17||	=17||
*k[f#c#g#]	*k[f#c#g#]	*
*M3/4	*M3/4	*
!	!LO:TX:t=P:problem:w źródle "Trio" zapisane pomiędzy dwoma pięcioliniami, przed taktem 17	!
!	!LO:TX:t=Trio	!
4AA/	8.eL 8.c#/	.
.	16f#Jk 16d/	.
4C#/	8eL 8c#/	.
.	8eJ 8c#/	.
4AA/	(8.eL 8.c#/	.
.	16a/Jk)	.
=18	=18	=18
8r	8gnL 8e/	.
8D\	8f#J 8d/	.
!LO:TX:a:t=P:problem:mixed beam	!	!
*tremolo	*	*
8DD/L	2f# 2d/	.
8D\	.	.
8DD/	.	.
8D\J	.	.
*Xtremolo	*	*
=19	=19	=19
4E\	8.g#XL 8.e/	.
.	16aJk 16f#/	.
4G#\	8bL 8g#/	.
.	8bJ 8g#/	.
*	*Xtuplet	*
4E\	12bL 12g#/	.
.	12ee/	.
.	12dd/J	.
=20	=20	=20
*	*^	*
8r	8ddL 8b/	4ryy	.
8AA/L	8cc#J 8a/	.	.
!	!LO:TX:t=P:problem:w źródle 2cc# jest zapisane nad 8A	!	!
!	!	!LO:TX:t=P:problem:w źródle 2a jest zapisane nad 8AA	!
8C#/	2cc#/	2a\	.
8E/	.	.	.
8A/	.	.	.
8AA/J	.	.	.
*	*v	*v	*
!!LO:LB:g=original
=21	=21	=21
*clefG2	*	*
.	8qqgg# 8qqee/	.
!	!	!LO:DY:t=pa
8r	4.eee\	p
8cc# 8e/	.	.
*tremolo	*tremolo	*
8cc#L 8e/	.	.
!	!LO:TX:t=P:problem:w źródle 16ccc# zapisane nad 8cc# 8e	!
8cc# 8e/	16ccc#\LL	.
.	16aa\JJ	.
.	8qqccc# 8qqaa/	.
8cc# 8e/	8eee\L	.
8cc#J 8e/	16ccc#\L	.
.	16aa\JJ	.
*Xtremolo	*Xtremolo	*
=22	=22	=22
4dd 4e/	16gg#X\LL	.
.	16bb\JJ	.
.	4bb\	.
4dd 4e/	.	.
.	16ddd\LL	.
.	16bb\JJ	.
4dd 4e/	16aa\LL	.
.	16gg#\	.
.	16ff#\	.
.	16ee\JJ	.
=23	=23	=23
8r	8ee`\	.
8cc# 8e/	4eee\	.
*tremolo	*tremolo	*
8cc#L 8e/	.	.
8cc# 8e/	16ccc#\LL	.
.	16aa\JJ	.
.	8qqgg# 8qqee/	.
8cc# 8e/	8eee\L	.
8cc#J 8e/	16ccc#\L	.
.	16aa\JJ	.
*Xtremolo	*Xtremolo	*
=24	=24	=24
!LO:TX:a:t=P:problem:mixed beam	!	!
8dd\L	16bb\LL	.
.	16ddd\	.
8b\	16gg#\	.
.	16bb\JJ	.
.	8qqbb 8qqgg#/	.
8ee\	2aa\	.
8e/J	.	.
4a/	.	.
=25||	=25||	=25||
*clefF4	*	*
!LO:TX:a:t=P:problem:mixed beam	!	!
8E\L	16e'/LL	.
.	16g#'/J	.
8EE/J	8.b'/J	.
4E\	.	.
.	16g#'/LL	.
.	16b'/	.
.	16ee'/JJ	.
4r	(8.gg#\L	.
.	16ee\Jk)	.
!!LO:LB:g=original
=26	=26	=26
!LO:TX:a:t=P:problem:mixed beam	!	!
8E\L	16g#'/LL	.
.	16b'/J	.
8EE/J	8.ee'/J	.
4E\	.	.
.	16b/LL	.
.	16dd/	.
.	16gg#/JJ	.
4r	(8.bb\L	.
.	16gg#\Jk)	.
=27	=27	=27
.	8qqgg#/	.
4B 4G# 4E\	8.ddd\L	.
.	16bb\Jk	.
4B 4G# 4E\	8gg#'\L	.
.	8gg#'\	.
4B 4G# 4E\	(8gg#\	.
.	8bb\J)	.
=28	=28	=28
4c# 4A 4E\	8.aa\L	.
.	16gg#\Jk	.
8r	16ff#\LL	.
.	16ee\	.
8A\L	16dd\	.
.	16cc#\JJ	.
.	8qqcc#/	.
!	!LO:N:vis=2	!
8e\	4b\	.
8E\J	.	.
=29	=29	=29
8r	8.e/L	.
8c#\	.	.
.	16a/Jk	.
*2\right	*	*
*tremolo	*	*
8C#\L	8a/L	.
8c#\	8a/J	.
.	8qqa/	.
8C#\	8.cc#/L	.
8c#\J	.	.
.	32b/LL	.
.	32a/JJJ	.
*Xtremolo	*	*
=30	=30	=30
.	8qqg#/	.
8r	8g#/L	.
8D/L	8f#/J	.
8D/	2f#/	.
8D/	.	.
8F#/	.	.
8D/J	.	.
=31	=31	=31
8r	16f#/LL	.
.	16b/JJ	.
8d\	4b/	.
*tremolo	*	*
8D\L	.	.
8d\	16dd\LL	.
.	16cc#\JJ	.
8D\	8.b/L	.
8d\J	.	.
.	16a/Jk	.
*Xtremolo	*	*
!!LO:LB:g=original
=32	=32	=32
4e\	16g#/LL	.
.	16a/	.
.	16cc#/	.
.	16b/JJ	.
.	8qqb/	.
8r	2a/	.
!LO:TX:t=P:problem:w źródle 8E zapisane pod 16b	!	!
8E\	.	.
!LO:TX:t=P:problem:w źródle 4A zapisane pod 2a	!	!
4A\	.	.
==	==	==
*-	*-	*-
!!!system-decoration: {(s1,s2)}
!!!ENC: Tomasz Grochalski
!!!END: 2020-06-02
!!!EED: Antoni Szymański
!!!EST: 2020-10-04
